X: 18852
T: In And Out The Windows
R: polka
M: 2/4
K: Fmajor
(A|CF A>B|AG- G)(G|CE G>A|GF- F)||
(A|CF A>B|AG- G)(A|cc B>G|F2- F)||

